tools/download-figma-icons/icons/outlined-medium/cold.svg

<svg width="24" height="24" viewBox="0 0 24 24" fill="none" xmlns="http://www.w3.org/2000/svg">
<path d="M11.625 14.7375V3.375C11.625 2.47989 11.2694 1.62145 10.6365 0.988515C10.0036 0.355579 9.14512 0 8.25002 0C7.35491 0 6.49647 0.355579 5.86353 0.988515C5.2306 1.62145 4.87502 2.47989 4.87502 3.375V14.7375C4.12574 15.3684 3.56791 16.1964 3.26461 17.1278C2.96131 18.0592 2.92462 19.0569 3.1587 20.008C3.39279 20.9592 3.8883 21.8259 4.58922 22.5101C5.29014 23.1944 6.16851 23.6689 7.12502 23.88C7.4947 23.9598 7.87182 24 8.25002 24C9.32529 23.9978 10.374 23.6655 11.2543 23.0481C12.1346 22.4306 12.804 21.5577 13.1722 20.5474C13.5403 19.5371 13.5893 18.4381 13.3126 17.399C13.0359 16.36 12.4468 15.4309 11.625 14.7375ZM10.6125 21.6675C10.1725 22.0254 9.65707 22.2789 9.10495 22.4088C8.55284 22.5387 7.97845 22.5417 7.42502 22.4175C6.72915 22.2522 6.09508 21.8913 5.59759 21.3774C5.1001 20.8635 4.75995 20.2181 4.61726 19.5172C4.47456 18.8164 4.53527 18.0893 4.79224 17.4218C5.0492 16.7543 5.49169 16.1743 6.06752 15.75L6.37502 15.525V3.375C6.37502 2.87772 6.57256 2.40081 6.92419 2.04917C7.27582 1.69754 7.75274 1.5 8.25002 1.5C8.7473 1.5 9.22421 1.69754 9.57584 2.04917C9.92747 2.40081 10.125 2.87772 10.125 3.375V15.4875L10.44 15.7125C10.9077 16.0491 11.2915 16.489 11.5616 16.998C11.8317 17.507 11.9809 18.0714 11.9976 18.6474C12.0143 19.2234 11.898 19.7954 11.6578 20.3192C11.4176 20.843 11.0599 21.3043 10.6125 21.6675Z" fill="black"/>
<path d="M9 17.0326V12.4351H7.5V17.0326C7.1052 17.2049 6.78177 17.5079 6.58409 17.8906C6.38641 18.2733 6.32654 18.7124 6.41455 19.1341C6.50256 19.5558 6.73308 19.9343 7.06735 20.206C7.40161 20.4777 7.81924 20.626 8.25 20.626C8.68077 20.626 9.09839 20.4777 9.43266 20.206C9.76692 19.9343 9.99744 19.5558 10.0855 19.1341C10.1735 18.7124 10.1136 18.2733 9.91591 17.8906C9.71824 17.5079 9.3948 17.2049 9 17.0326Z" fill="black"/>
<path d="M20.25 9.75H15.75C15.5511 9.75 15.3603 9.82902 15.2197 9.96967C15.079 10.1103 15 10.3011 15 10.5C15 10.6989 15.079 10.8897 15.2197 11.0303C15.3603 11.171 15.5511 11.25 15.75 11.25H20.25C20.4489 11.25 20.6397 11.171 20.7803 11.0303C20.921 10.8897 21 10.6989 21 10.5C21 10.3011 20.921 10.1103 20.7803 9.96967C20.6397 9.82902 20.4489 9.75 20.25 9.75Z" fill="black"/>
</svg>

<svg width="24" height="24" viewBox="0 0 24 24" fill="none" xmlns="http://www.w3.org/2000/svg"><path d="M11.625 14.738V3.375a3.375 3.375 0 0 0-6.75 0v11.363a5.25 5.25 0 0 0 2.25 9.142 5.25 5.25 0 0 0 4.5-9.142Zm-1.012 6.93a3.75 3.75 0 0 1-3.188.75 3.75 3.75 0 0 1-1.357-6.668l.307-.225V3.375a1.875 1.875 0 0 1 3.75 0v12.113l.315.225a3.749 3.749 0 0 1 .173 5.955Z" fill="currentColor"/><path d="M9 17.033v-4.598H7.5v4.598a1.875 1.875 0 1 0 1.5 0ZM20.25 9.75h-4.5a.75.75 0 1 0 0 1.5h4.5a.75.75 0 1 0 0-1.5Z" fill="currentColor"/></svg>
